src/lib/assets/customers/rs-moebel.svg

<svg xmlns="http://www.w3.org/2000/svg" width="105" height="72" viewBox="0 0 105 72">
    <g fill="none" fill-rule="evenodd">
        <path fill="#472812" d="M0 72h105V0H0z"/>
        <path fill="#FFFFFE" d="M40.286 55.962l-5.026-.747v-9.491c0-3.305.963-18.129 4.813-18.129 1.816 0 3.953 1.813 6.2 1.813 6.306 0 9.727-4.266 9.727-9.705C56 14.373 52.58 10 46.272 10c-7.698 0-10.797 8.637-13.684 14.289h-.213C32.053 19.276 30.13 14.69 27.564 10L8 16.078v6.185c5.559 0 7.804 2.346 7.804 11.09v21.862l-5.025.747V63h29.507v-7.038M81.445 10c-10.75 0-23.757 3.381-23.757 18.388 0 19.76 25.799 14.583 25.799 23.249 0 3.592-3.763 5.389-6.988 5.389-.966 0-3.546-.211-3.87-1.374-1.182-4.438-2.686-10.462-9.674-10.462-4.515 0-7.955 3.7-7.955 8.137C55 63.154 67.684 64 74.242 64 84.992 64 98 60.196 98 44.979c0-20.29-25.8-14.584-25.8-22.616 0-4.226 3.87-5.389 6.773-5.389.859 4.65 4.3 9.406 9.136 9.406 3.978 0 7.74-2.114 7.74-6.447 0-7.08-6.128-9.933-14.404-9.933"/>
    </g>
</svg>

<svg width="105" height="72" viewBox="0 0 105 72" fill="none" xmlns="http://www.w3.org/2000/svg">
<g clip-path="url(#clip0_1_28)">
<path fill-rule="evenodd" clip-rule="evenodd" d="M0 72H105V0H0V72Z" fill="#0611A9"/>
<path fill-rule="evenodd" clip-rule="evenodd" d="M40.286 55.962L35.26 55.215V45.724C35.26 42.419 36.223 27.595 40.073 27.595C41.889 27.595 44.026 29.408 46.273 29.408C52.579 29.408 56 25.142 56 19.703C56 14.373 52.58 10 46.272 10C38.574 10 35.475 18.637 32.588 24.289H32.375C32.053 19.276 30.13 14.69 27.564 10L8 16.078V22.263C13.559 22.263 15.804 24.609 15.804 33.353V55.215L10.779 55.962V63H40.286V55.962ZM81.445 10C70.695 10 57.688 13.381 57.688 28.388C57.688 48.148 83.487 42.971 83.487 51.637C83.487 55.229 79.724 57.026 76.499 57.026C75.533 57.026 72.953 56.815 72.629 55.652C71.447 51.214 69.943 45.19 62.955 45.19C58.44 45.19 55 48.89 55 53.327C55 63.154 67.684 64 74.242 64C84.992 64 98 60.196 98 44.979C98 24.689 72.2 30.395 72.2 22.363C72.2 18.137 76.07 16.974 78.973 16.974C79.832 21.624 83.273 26.38 88.109 26.38C92.087 26.38 95.849 24.266 95.849 19.933C95.849 12.853 89.721 10 81.445 10Z" fill="#FFFFFE"/>
</g>
<defs>
<clipPath id="clip0_1_28">
<rect width="105" height="72" fill="white"/>
</clipPath>
</defs>
</svg>
